plasma/desktoptheme/ROUNDED/icons/krfb.svg

<svg xmlns="http://www.w3.org/2000/svg" id="svg26" width="32" height="32" version="1.1">
 <g id="22-22-krfb" transform="translate(32.000001,10.000001)">
  <rect id="rect2" style="opacity:0.001" width="22" height="22" x="0" y="0"/>
  <path id="path819" style="opacity:1;fill:#232627" d="m 15,3 a 3,3 0 0 0 -3,3 3,3 0 0 0 0.228516,1.1425781 L 9.2402344,9.0097656 A 3,3 0 0 0 7,8 3,3 0 0 0 4,11 3,3 0 0 0 7,14 3,3 0 0 0 9.2421875,12.990234 l 2.9843745,1.867188 A 3,3 0 0 0 12,16 a 3,3 0 0 0 3,3 3,3 0 0 0 3,-3 3,3 0 0 0 -3,-3 3,3 0 0 0 -2.242188,1.009766 L 9.7734375,12.142578 A 3,3 0 0 0 10,11 3,3 0 0 0 9.7714844,9.8574219 L 12.759766,7.9902344 A 3,3 0 0 0 15,9 3,3 0 0 0 18,6 3,3 0 0 0 15,3 Z m 0,2 a 1,1 0 0 1 1,1 1,1 0 0 1 -1,1 1,1 0 0 1 -1,-1 1,1 0 0 1 1,-1 z m -8,5 a 1,1 0 0 1 1,1 1,1 0 0 1 -1,1 1,1 0 0 1 -1,-1 1,1 0 0 1 1,-1 z m 8,5 a 1,1 0 0 1 1,1 1,1 0 0 1 -1,1 1,1 0 0 1 -1,-1 1,1 0 0 1 1,-1 z"/>
 </g>
 <g id="krfb">
  <rect id="rect817" style="opacity:0.001" width="32" height="32" x="0" y="0"/>
  <path id="path828" style="opacity:1;fill:#232627" d="M 22 4 A 4 4 0 0 0 18 8 A 4 4 0 0 0 18.423828 9.78125 L 13.021484 13.382812 A 4 4 0 0 0 10 12 A 4 4 0 0 0 6 16 A 4 4 0 0 0 10 20 A 4 4 0 0 0 13.019531 18.615234 L 18.421875 22.214844 A 4 4 0 0 0 18 24 A 4 4 0 0 0 22 28 A 4 4 0 0 0 26 24 A 4 4 0 0 0 22 20 A 4 4 0 0 0 18.980469 21.384766 L 13.578125 17.783203 A 4 4 0 0 0 14 16 A 4 4 0 0 0 13.576172 14.216797 L 18.978516 10.615234 A 4 4 0 0 0 22 12 A 4 4 0 0 0 26 8 A 4 4 0 0 0 22 4 z M 22 6 A 2 2 0 0 1 24 8 A 2 2 0 0 1 22 10 A 2 2 0 0 1 20 8 A 2 2 0 0 1 22 6 z M 10 14 A 2 2 0 0 1 12 16 A 2 2 0 0 1 10 18 A 2 2 0 0 1 8 16 A 2 2 0 0 1 10 14 z M 22 22 A 2 2 0 0 1 24 24 A 2 2 0 0 1 22 26 A 2 2 0 0 1 20 24 A 2 2 0 0 1 22 22 z"/>
 </g>
</svg>

<svg xmlns="http://www.w3.org/2000/svg" id="svg26" width="22" height="22" version="1.1">
 <g id="krfb">
  <rect id="rect2" style="opacity:0.001" width="22" height="22" x="0" y="0"/>
  <path id="path819" style="opacity:1;fill:#232627" d="M 15 3 A 3 3 0 0 0 12 6 A 3 3 0 0 0 12.228516 7.1425781 L 9.2402344 9.0097656 A 3 3 0 0 0 7 8 A 3 3 0 0 0 4 11 A 3 3 0 0 0 7 14 A 3 3 0 0 0 9.2421875 12.990234 L 12.226562 14.857422 A 3 3 0 0 0 12 16 A 3 3 0 0 0 15 19 A 3 3 0 0 0 18 16 A 3 3 0 0 0 15 13 A 3 3 0 0 0 12.757812 14.009766 L 9.7734375 12.142578 A 3 3 0 0 0 10 11 A 3 3 0 0 0 9.7714844 9.8574219 L 12.759766 7.9902344 A 3 3 0 0 0 15 9 A 3 3 0 0 0 18 6 A 3 3 0 0 0 15 3 z M 15 5 A 1 1 0 0 1 16 6 A 1 1 0 0 1 15 7 A 1 1 0 0 1 14 6 A 1 1 0 0 1 15 5 z M 7 10 A 1 1 0 0 1 8 11 A 1 1 0 0 1 7 12 A 1 1 0 0 1 6 11 A 1 1 0 0 1 7 10 z M 15 15 A 1 1 0 0 1 16 16 A 1 1 0 0 1 15 17 A 1 1 0 0 1 14 16 A 1 1 0 0 1 15 15 z"/>
 </g>
</svg>
